X: 27
T: Saint George's Day
S: https://lesters-tune-a-day.blogspot.co.uk/2018/05/tune-502-st-georges-day.html
R: jig
Z: 2018 John Chambers <jc:trillian.mit.edu>
B: Northern Frisk
N: As Lester plays it. His abc has | cBA DEF | G3 G2 :| for both endings.
L: 1/8
M: 6/8
K: G
D |\
"G"G2D "D7"A2D | "G"B2G GAB | "C(Am)"c2B A2G | "D7"FGA DEF |\
"G"G2D "D7"A2D | "G"B2G GAB | "C(Am)"c2B A2G | "D7"DEF "G"G2 :|
|: B |\
"G"d2d dBd | "C(Am)"e2c c2B | "D7"c2c cAc | "G"d2B B2D |\
"G"G2D "D7"A2D | "G"B2G GAB | "C(Am)"c2B A2G | "D7"DEF "G"G3 :|
